; generated by PrusaSlicer 2.8.1+linux-x64-GTK3 on 2024-12-17 at 18:46:23 UTC


;
;
; 

; external perimeters extrusion width = 0.45mm
; perimeters extrusion width = 0.45mm
; infill extrusion width = 0.45mm
; solid infill extrusion width = 0.45mm
; top infill extrusion width = 0.40mm
; support material extrusion width = 0.35mm
; first layer extrusion width = 0.42mm

; external perimeters extrusion width = 0.45mm
; perimeters extrusion width = 0.45mm
; infill extrusion width = 0.45mm
; solid infill extrusion width = 0.45mm
; top infill extrusion width = 0.40mm
; support material extrusion width = 0.35mm
; first layer extrusion width = 0.42mm

M73 P0 R28
M73 Q0 S28
M201 X1000 Y1000 Z200 E5000 ; sets maximum accelerations, mm/sec^2
M203 X200 Y200 Z12 E120 ; sets maximum feedrates, mm / sec
M204 S1250 T1250 ; sets acceleration (S) and retract acceleration (R), mm/sec^2
M205 X8.00 Y8.00 Z0.40 E4.50 ; sets the jerk limits, mm/sec
M205 S0 T0 ; sets the minimum extruding and travel feed rate, mm/sec

; printing object left-wheel-bracket(3).stl id:1 copy 0
; stop printing object left-wheel-bracket(3).stl id:1 copy 0
; printing object right-wheel-bracket(1).stl id:0 copy 0
; stop printing object right-wheel-bracket(1).stl id:0 copy 0

;TYPE:Custom
M862.3 P "MK3S" ; printer model check
M862.1 P0.4 ; nozzle diameter check
M115 U3.14.0 ; tell printer latest fw version
G90 ; use absolute coordinates
M83 ; extruder relative mode
M104 S240 ; set extruder temp
M140 S85 ; set bed temp
M190 S85 ; wait for bed temp
M109 S240 ; wait for extruder temp
G28 W ; home all without mesh bed level
G80 X95.9617 Y87.7536 W41.7387 H60.5586 ; mesh bed levelling

G1 Z0.2 F720
G1 Y-3 F1000 ; go outside print area
G92 E0
G1 X60 E9 F1000 ; intro line
G1 X100 E12.5 F1000 ; intro line

G92 E0
M221 S95

; Don't change E values below. Excessive value can damage the printer.
M907 E430 ; set extruder motor current
G21 ; set units to millimeters
G90 ; use absolute coordinates
M83 ; use relative distances for extrusion

M900 K0.08 ; Filament gcode LA 1.5
M900 K45 ; Filament gcode LA 1.0




M107
;LAYER_CHANGE
;Z:0.2
;HEIGHT:0.2
G1 E-1 F2100
G1 Z.4 F720
G1 X97.865 Y90.273 F10800
G1 Z.2 F720
G1 E1 F2100
M204 S800
;TYPE:Skirt/Brim
;WIDTH:0.42
G1 F1200
G1 X98.486 Y89.796 E.02455
G1 X99.704 Y89.211 E.04237
G1 X101.033 Y88.961 E.0424
G1 X109.55 Y87.942 E.26895
G1 X131.604 Y87.961 E.69149
G1 X132.639 Y88.097 E.03273
G1 X134.156 Y88.645 E.05057
G1 X134.651 Y88.93 E.01791
G1 X135.883 Y89.97 E.05055
G1 X136.519 Y90.798 E.03274
G1 X137.204 Y92.258 E.05057
G1 X137.488 Y93.845 E.05055
G1 X137.512 Y141.935 E1.50783
G1 X137.357 Y143.256 E.0417
G1 X137.209 Y143.808 E.01792
G1 X136.524 Y145.267 E.05054
G1 X135.484 Y146.5 E.05058
G1 X134.161 Y147.421 E.05054
G1 X132.644 Y147.969 E.05057
G1 X131.323 Y148.124 E.0417
G1 X115.323 Y148.124 E.50167
G1 X114.002 Y147.969 E.0417
G1 X113.45 Y147.821 E.01792
G1 X111.991 Y147.136 E.05054
G1 X110.759 Y146.096 E.05055
G1 X109.837 Y144.773 E.05056
G1 X109.347 Y143.543 E.04151
G1 X96.308 Y95.48 E1.56145
G1 X96.149 Y94.416 E.03373
G1 X96.149 Y93.845 E.0179
G1 X96.399 Y92.517 E.04237
G1 X96.984 Y91.298 E.04239
G1 X97.826 Y90.319 E.04049
M204 S1000
;WIPE_START
G1 F8640
G1 X97.865 Y90.273 E-.01393
G1 X98.486 Y89.796 E-.18081
G1 X99.704 Y89.211 E-.312
G1 X101.033 Y88.961 E-.31225
G1 X101.811 Y88.868 E-.18101
;WIPE_END
G1 Z.4 F720
; printing object right-wheel-bracket(1).stl id:0 copy 0
G1 X122.069 Y114.86 F10800
G1 Z.2 F720
G1 E1 F2100
M204 S800
;TYPE:Support material
G1 F1200
G1 X111.568 Y114.86 E.32925
G1 X111.568 Y110.529 E.1358
M73 P1 R28
M73 Q1 S28
G1 X121.517 Y110.529 E.31194
G1 X121.798 Y110.247 E.01248
G1 X121.798 Y109.187 E.03324
G1 X122.069 Y108.916 E.01202
G1 X122.069 Y114.803 E.18458
M204 S1000
G1 X121.427 Y114.69 F10800
M204 S800
G1 F1200
G1 X121.427 Y110.868 E.11984
G1 X121.008 Y110.868 E.01314
G1 X121.008 Y114.52 E.11451
G1 X120.589 Y114.52 E.01314
G1 X120.589 Y110.868 E.11451
G1 X120.17 Y110.868 E.01314
G1 X120.17 Y114.52 E.11451
G1 X119.751 Y114.52 E.01314
G1 X119.751 Y110.868 E.11451
G1 X119.332 Y110.868 E.01314
G1 X119.332 Y114.52 E.11451
G1 X118.913 Y114.52 E.01314
G1 X118.913 Y110.868 E.11451
G1 X118.494 Y110.868 E.01314
G1 X118.494 Y114.52 E.11451
G1 X118.075 Y114.52 E.01314
G1 X118.075 Y110.868 E.11451
G1 X117.656 Y110.868 E.01314
G1 X117.656 Y114.52 E.11451
G1 X117.237 Y114.52 E.01314
G1 X117.237 Y110.868 E.11451
G1 X116.818 Y110.868 E.01314
G1 X116.818 Y114.52 E.11451
G1 X116.399 Y114.52 E.01314
G1 X116.399 Y110.868 E.11451
G1 X115.98 Y110.868 E.01314
G1 X115.98 Y114.52 E.11451
G1 X115.561 Y114.52 E.01314
G1 X115.561 Y110.868 E.11451
G1 X115.143 Y110.868 E.01311
G1 X115.143 Y114.52 E.11451
G1 X114.724 Y114.52 E.01314
G1 X114.724 Y110.868 E.11451
G1 X114.305 Y110.868 E.01314
G1 X114.305 Y114.52 E.11451
G1 X113.886 Y114.52 E.01314
G1 X113.886 Y110.868 E.11451
G1 X113.467 Y110.868 E.01314
G1 X113.467 Y114.52 E.11451
G1 X113.048 Y114.52 E.01314
G1 X113.048 Y110.868 E.11451
G1 X112.629 Y110.868 E.01314
G1 X112.629 Y114.52 E.11451
G1 X112.21 Y114.52 E.01314
G1 X112.21 Y110.698 E.11984
M204 S1000
;WIPE_START
G1 F8640
G1 X112.21 Y114.52 E-.88251
G1 X112.629 Y114.52 E-.09675
G1 X112.629 Y114.43 E-.02074
;WIPE_END
G1 Z.4 F720
G1 X118.282 Y92.168 F10800
G1 Z.2 F720
G1 E1 F2100
M204 S800
;TYPE:Perimeter
;WIDTH:0.419999
G1 F1200
G1 X118.693 Y92.675 E.02046
G1 X118.989 Y93.339 E.02279
G1 X119.103 Y94.057 E.02279
G1 X119.027 Y94.78 E.02279
G1 X118.767 Y95.459 E.0228
G1 X118.462 Y95.887 E.01648
G1 X118.235 Y96.152 E.01094
G1 X117.774 Y96.505 E.01821
G1 X117.11 Y96.801 E.02279
G1 X116.392 Y96.915 E.02279
G1 X115.669 Y96.839 E.02279
G1 X114.99 Y96.579 E.0228
G1 X114.402 Y96.152 E.02278
G1 X113.944 Y95.587 E.0228
G1 X113.648 Y94.923 E.02279
G1 X113.534 Y94.205 E.02279
G1 X113.61 Y93.481 E.02283
G1 X113.87 Y92.803 E.02277
G1 X114.298 Y92.214 E.02283
G1 X114.862 Y91.756 E.02278
;WIDTH:0.455984
G1 X115.52 Y91.444 E.02501
;WIDTH:0.484089
G1 X115.665 Y91.391 E.00566
G1 X116.19 Y91.339 E.01935
;WIDTH:0.48282
G1 X116.959 Y91.389 E.02819
G1 X117.303 Y91.536 E.01368
;WIDTH:0.45141
G1 X117.647 Y91.683 E.01271
;WIDTH:0.419999
G1 X118.235 Y92.11 E.02278
G1 X118.244 Y92.121 E.00045
M204 S1000
G1 X118.244 Y92.121 F10800
G1 X118.021 Y92.429
M204 S800
;TYPE:External perimeter
G1 F1200
G1 X118.394 Y92.904 E.01894
G1 X118.64 Y93.483 E.01972
G1 X118.729 Y94.106 E.01973
G1 X118.653 Y94.731 E.01974
G1 X118.418 Y95.315 E.01974
G1 X118.04 Y95.818 E.01973
G1 X117.545 Y96.206 E.01972
G1 X116.966 Y96.452 E.01972
G1 X116.343 Y96.541 E.01973
G1 X115.718 Y96.465 E.01974
G1 X115.135 Y96.23 E.01971
G1 X114.631 Y95.852 E.01975
G1 X114.243 Y95.357 E.01972
G1 X113.997 Y94.778 E.01972
G1 X113.908 Y94.155 E.01973
G1 X113.984 Y93.531 E.01971
G1 X114.219 Y92.947 E.01974
G1 X114.597 Y92.444 E.01973
G1 X115.092 Y92.056 E.01972
G1 X115.671 Y91.809 E.01974
G1 X116.242 Y91.727 E.01809
G1 X116.914 Y91.796 E.02118
G1 X117.502 Y92.031 E.01985
G1 X117.978 Y92.388 E.01866
M204 S1000
;WIPE_START
G1 F8640
G1 X118.021 Y92.429 E-.01372
G1 X118.394 Y92.904 E-.13945
G1 X118.64 Y93.483 E-.14526
G1 X118.729 Y94.106 E-.14531
G1 X118.653 Y94.731 E-.14538
G1 X118.418 Y95.315 E-.14536
G1 X118.04 Y95.818 E-.14528
G1 X117.63 Y96.139 E-.12024
;WIPE_END
G1 Z.4 F720
G1 X99.666 Y93.177 F10800
G1 Z.2 F720
G1 E1 F2100
M204 S800
G1 F1200
G1 X99.676 Y93.154 E.00079
G1 X99.985 Y92.762 E.01565
G1 X100.385 Y92.464 E.01564
G1 X100.848 Y92.279 E.01563
G1 X101.331 Y92.23 E.01522
G1 X101.836 Y92.292 E.01595
G1 X102.295 Y92.489 E.01566
G1 X102.687 Y92.797 E.01563
G1 X102.985 Y93.197 E.01564
G1 X103.17 Y93.66 E.01563
G1 X103.229 Y94.155 E.01563
G1 X103.157 Y94.649 E.01565
G1 X102.96 Y95.107 E.01563
G1 X102.652 Y95.499 E.01563
G1 X102.252 Y95.797 E.01564
G1 X101.789 Y95.982 E.01563
G1 X101.294 Y96.041 E.01563
G1 X100.8 Y95.97 E.01565
G1 X100.342 Y95.773 E.01563
G1 X99.95 Y95.464 E.01565
G1 X99.652 Y95.064 E.01564
G1 X99.467 Y94.601 E.01563
G1 X99.408 Y94.106 E.01563
G1 X99.48 Y93.612 E.01565
G1 X99.643 Y93.232 E.01296
M204 S1000
;WIPE_START
G1 F8640
G1 X99.666 Y93.177 E-.01377
G1 X99.676 Y93.154 E-.00579
G1 X99.985 Y92.762 E-.11525
G1 X100.385 Y92.464 E-.11517
G1 X100.848 Y92.279 E-.11513
G1 X101.331 Y92.23 E-.1121
G1 X101.836 Y92.292 E-.11748
G1 X102.295 Y92.489 E-.11533
G1 X102.687 Y92.797 E-.11511
G1 X102.985 Y93.197 E-.11517
G1 X103.081 Y93.437 E-.0597
;WIPE_END
G1 Z.4 F720
G1 X134.008 Y93.411 F10800
G1 Z.2 F720
G1 E1 F2100
M204 S800
;TYPE:Perimeter
;WIDTH:0.435881
G1 F1200
G1 X134.11 Y94.056 E.02134
G1 X134.035 Y94.781 E.02382
G1 X133.774 Y95.462 E.02383
G1 X133.346 Y96.052 E.02382
G1 X132.779 Y96.511 E.02384
G1 X132.113 Y96.808 E.02383
G1 X131.393 Y96.923 E.02382
;WIDTH:0.4848
G1 X130.665 Y96.871 E.02682
G1 X130.328 Y96.725 E.01349
;WIDTH:0.4524
G1 X129.99 Y96.579 E.01254
;WIDTH:0.419999
G1 X129.402 Y96.152 E.02278
G1 X128.944 Y95.587 E.0228
G1 X128.648 Y94.923 E.02279
G1 X128.529 Y94.131 E.02511
G1 X128.61 Y93.481 E.02054
G1 X128.87 Y92.803 E.02277
G1 X129.298 Y92.214 E.02283
G1 X129.862 Y91.756 E.02278
;WIDTH:0.455094
G1 X130.52 Y91.444 E.02496
;WIDTH:0.482324
G1 X130.665 Y91.391 E.00564
G1 X131.191 Y91.34 E.01931
;WIDTH:0.447671
G1 X131.956 Y91.413 E.02586
;WIDTH:0.435881
G1 X132.65 Y91.675 E.02424
G1 X133.24 Y92.103 E.02382
G1 X133.699 Y92.67 E.02384
G1 X133.996 Y93.336 E.02383
G1 X133.998 Y93.351 E.00049
M204 S1000
G1 X133.998 Y93.351 F10800
G1 X133.644 Y93.508
M204 S800
;TYPE:External perimeter
;WIDTH:0.419999
G1 F1200
G1 X133.729 Y94.106 E.01894
G1 X133.653 Y94.731 E.01974
G1 X133.418 Y95.315 E.01974
G1 X133.04 Y95.818 E.01973
G1 X132.545 Y96.206 E.01972
G1 X131.966 Y96.452 E.01972
G1 X131.343 Y96.541 E.01973
G1 X130.718 Y96.465 E.01974
G1 X130.135 Y96.23 E.01971
G1 X129.631 Y95.852 E.01975
G1 X129.243 Y95.357 E.01972
G1 X128.997 Y94.778 E.01972
G1 X128.907 Y94.131 E.02048
G1 X128.984 Y93.531 E.01897
G1 X129.219 Y92.947 E.01974
G1 X129.597 Y92.444 E.01973
G1 X130.092 Y92.056 E.01972
G1 X130.671 Y91.809 E.01974
G1 X131.242 Y91.727 E.01809
G1 X131.914 Y91.796 E.02118
G1 X132.502 Y92.031 E.01985
G1 X133.005 Y92.409 E.01973
G1 X133.394 Y92.904 E.01974
G1 X133.627 Y93.451 E.01864
M204 S1000
;WIPE_START
G1 F8640
G1 X133.644 Y93.508 E-.01373
G1 X133.729 Y94.106 E-.13947
G1 X133.653 Y94.731 E-.14538
G1 X133.418 Y95.315 E-.14536
G1 X133.04 Y95.818 E-.14528
G1 X132.545 Y96.206 E-.14522
G1 X131.966 Y96.452 E-.14526
G1 X131.45 Y96.526 E-.1203
;WIPE_END
G1 Z.4 F720
G1 X120.705 Y97.52 F10800
G1 Z.2 F720
G1 E1 F2100
M204 S800
;TYPE:Perimeter
G1 F1200
G1 X120.615 Y97.613 E.00406
G1 X120.531 Y97.909 E.00965
G1 X120.531 Y109.262 E.35596
G1 X112.106 Y109.262 E.26416
G1 X112.106 Y98.506 E.33725
G1 X112.082 Y97.748 E.02378
G1 X111.989 Y97.565 E.00644
G1 X111.791 Y97.402 E.00804
G1 X111.54 Y97.344 E.00808
G1 X109.989 Y97.344 E.04863
G1 X109.472 Y97.319 E.01623
G1 X109.132 Y96.921 E.01641
G1 X108.774 Y96.622 E.01462
G1 X108.351 Y96.426 E.01462
G1 X107.833 Y96.344 E.01644
G1 X101.861 Y96.348 E.18725
;WIDTH:0.413897
G1 X101.98 Y96.315 E.00381
;WIDTH:0.419999
G1 X102.524 Y96.072 E.01868
G1 X102.986 Y95.694 E.01872
G1 X103.333 Y95.209 E.0187
G1 X103.544 Y94.65 E.01873
G1 X103.603 Y94.057 E.01868
G1 X103.506 Y93.468 E.01872
G1 X103.26 Y92.925 E.01869
G1 X102.881 Y92.463 E.01874
G1 X102.397 Y92.116 E.01867
G1 X101.824 Y91.911 E.01908
G1 X107.833 Y91.918 E.18841
G1 X108.209 Y91.873 E.01187
G1 X108.646 Y91.713 E.01459
G1 X109.028 Y91.444 E.01465
G1 X109.405 Y90.985 E.01862
G1 X109.602 Y90.918 E.00652
G1 X114.838 Y90.919 E.16417
;WIDTH:0.452044
G1 X115.237 Y90.935 E.01358
;WIDTH:0.484089
G1 X115.636 Y90.951 E.01465
G1 X116.352 Y90.934 E.02627
;WIDTH:0.448393
G1 X117.218 Y90.932 E.0292
;WIDTH:0.445616
G1 X117.798 Y90.92 E.01943
;WIDTH:0.419999
G1 X129.839 Y90.923 E.37754
;WIDTH:0.451162
G1 X130.238 Y90.938 E.01355
;WIDTH:0.482324
G1 X130.636 Y90.954 E.01455
G1 X131.377 Y90.944 E.02708
;WIDTH:0.442727
G1 X132.003 Y91.023 E.02098
;WIDTH:0.435835
G1 X132.263 Y91.09 E.00877
G1 X132.8 Y91.312 E.01898
G1 X133.018 Y91.438 E.00823
G1 X133.479 Y91.792 E.01899
G1 X133.657 Y91.97 E.00822
G1 X134.011 Y92.431 E.01899
G1 X134.137 Y92.649 E.00823
G1 X134.359 Y93.185 E.01895
G1 X134.424 Y93.429 E.00825
;WIDTH:0.439118
G1 X134.511 Y94.157 E.02415
G1 X134.5 Y94.257 E.00331
;WIDTH:0.435824
G1 X134.424 Y94.832 E.01895
G1 X134.359 Y95.076 E.00825
G1 X134.137 Y95.612 E.01895
M73 Q2 S28
G1 X134.011 Y95.831 E.00825
G1 X133.657 Y96.291 E.01896
G1 X133.479 Y96.47 E.00825
G1 X133.018 Y96.823 E.01897
G1 X132.8 Y96.949 E.00823
G1 X132.264 Y97.171 E.01895
G1 X132.02 Y97.236 E.00825
;WIDTH:0.446768
G1 X131.217 Y97.33 E.02715
;WIDTH:0.449248
G1 X129.838 Y97.344 E.04659
;WIDTH:0.419999
G1 X121.045 Y97.346 E.2757
G1 X120.784 Y97.438 E.00868
M73 P2 R28
G1 X120.747 Y97.476 E.00166
M204 S1000
;WIPE_START
G1 F8640
G1 X120.705 Y97.52 E-.01405
G1 X120.615 Y97.613 E-.02988
G1 X120.531 Y97.909 E-.07105
G1 X120.531 Y101.742 E-.88502
;WIPE_END
G1 Z.4 F720
G1 X101.861 Y96.348 F10800
G1 Z.2 F720
G1 E1 F2100
M204 S800
;WIDTH:0.411096
G1 F1200
G1 X101.601 Y96.364 E.00797
;WIDTH:0.376008
G1 X101.341 Y96.38 E.00721
;WIDTH:0.34092
G1 X100.804 Y96.313 E.01341
;WIDTH:0.333018
G1 X100.257 Y96.106 E.01411
G1 X99.782 Y95.764 E.01412
G1 X99.412 Y95.31 E.01413
G1 X99.171 Y94.777 E.01411
G1 X99.077 Y94.199 E.01413
G1 X99.136 Y93.616 E.01413
G1 X99.344 Y93.069 E.01412
G1 X99.686 Y92.594 E.01412
G1 X100.139 Y92.224 E.01411
G1 X100.673 Y91.984 E.01412
G1 X101.205 Y91.896 E.01301
;WIDTH:0.369367
G1 X101.514 Y91.903 E.00839
;WIDTH:0.405718
G1 X101.824 Y91.911 E.00935
M204 S1000
;WIPE_START
G1 F8640
G1 X101.861 Y96.242 E-1
;WIPE_END
G1 Z.4 F720
G1 X120.954 Y97.807 F10800
G1 Z.2 F720
G1 E1 F2100
M204 S800
;TYPE:External perimeter
;WIDTH:0.419999
G1 F1200
G1 X120.908 Y97.909 E.00351
G1 X120.908 Y109.639 E.36779
G1 X111.728 Y109.639 E.28783
G1 X111.728 Y97.909 E.36779
G1 X111.664 Y97.768 E.00486
G1 X111.54 Y97.721 E.00416
G1 X109.989 Y97.721 E.04863
G1 X109.399 Y97.697 E.01851
G1 X109.197 Y97.592 E.00714
G1 X108.833 Y97.151 E.01793
G1 X108.545 Y96.922 E.01154
G1 X108.207 Y96.775 E.01156
G1 X107.833 Y96.721 E.01185
G1 X101.345 Y96.721 E.20343
G1 X100.649 Y96.629 E.02201
G1 X100.025 Y96.371 E.02117
G1 X99.49 Y95.96 E.02115
G1 X99.078 Y95.424 E.0212
G1 X98.82 Y94.8 E.02117
G1 X98.732 Y94.131 E.02116
G1 X98.82 Y93.461 E.02119
G1 X99.078 Y92.837 E.02117
G1 X99.49 Y92.302 E.02117
G1 X100.025 Y91.891 E.02115
G1 X100.649 Y91.632 E.02118
G1 X101.345 Y91.541 E.02201
G1 X107.833 Y91.541 E.20343
G1 X108.16 Y91.499 E.01034
M73 P2 R27
G1 X108.502 Y91.364 E.01153
G1 X108.798 Y91.145 E.01154
G1 X109.055 Y90.821 E.01297
G1 X109.257 Y90.623 E.00887
G1 X109.577 Y90.541 E.01036
G1 X131.33 Y90.546 E.68205
G1 X132.247 Y90.666 E.029
G1 X133.112 Y91.025 E.02936
G1 X133.854 Y91.595 E.02934
G1 X134.424 Y92.337 E.02934
G1 X134.715 Y93.038 E.0238
G1 X134.806 Y93.379 E.01107
G1 X134.895 Y94.207 E.02611
G1 X134.783 Y95.059 E.02694
G1 X134.424 Y95.924 E.02936
G1 X133.854 Y96.667 E.02936
G1 X133.112 Y97.237 E.02934
G1 X132.247 Y97.595 E.02935
G1 X131.292 Y97.721 E.0302
G1 X121.097 Y97.721 E.31966
G1 X120.988 Y97.762 E.00365
M204 S1000
;WIPE_START
G1 F8640
G1 X120.954 Y97.807 E-.01302
G1 X120.908 Y97.909 E-.02584
G1 X120.908 Y102.071 E-.96114
;WIPE_END
G1 Z.4 F720
G1 X129.515 Y91.092 F10800
G1 Z.2 F720
G1 E1 F2100
M204 S800
;TYPE:Solid infill
;WIDTH:0.423762
G1 F1200
G1 X129.823 Y91.4 E.01379
G1 X129.667 Y91.479 E.00554
G1 X129.495 Y91.61 E.00685
G1 X129.146 Y91.262 E.01561
G1 X128.608 Y91.262 E.01704
G1 X129.19 Y91.844 E.02606
G1 X128.936 Y92.128 E.01207
G1 X128.069 Y91.261 E.03883
G1 X127.53 Y91.261 E.01707
G1 X128.702 Y92.433 E.05249
G1 X128.561 Y92.664 E.00857
G1 X128.512 Y92.781 E.00402
G1 X126.992 Y91.261 E.06807
G1 X126.453 Y91.261 E.01707
G1 X128.354 Y93.162 E.08513
G1 X128.275 Y93.428 E.00879
G1 X128.254 Y93.6 E.00549
G1 X125.914 Y91.261 E.10477
G1 X125.375 Y91.261 E.01707
G1 X128.195 Y94.081 E.12629
G1 X128.256 Y94.68 E.01907
G1 X124.837 Y91.261 E.15312
G1 X124.298 Y91.261 E.01707
G1 X128.508 Y95.47 E.18852
G1 X128.669 Y95.785 E.0112
G1 X129.034 Y96.262 E.01902
G1 X129.187 Y96.415 E.00685
