; generated by PrusaSlicer 2.8.1+linux-x64-GTK3 on 2024-12-13 at 14:49:29 UTC


;
;
; 

; external perimeters extrusion width = 0.45mm
; perimeters extrusion width = 0.45mm
; infill extrusion width = 0.45mm
; solid infill extrusion width = 0.45mm
; top infill extrusion width = 0.40mm
; support material extrusion width = 0.35mm
; first layer extrusion width = 0.42mm

; external perimeters extrusion width = 0.45mm
; perimeters extrusion width = 0.45mm
; infill extrusion width = 0.45mm
; solid infill extrusion width = 0.45mm
; top infill extrusion width = 0.40mm
; support material extrusion width = 0.35mm
; first layer extrusion width = 0.42mm

; external perimeters extrusion width = 0.45mm
; perimeters extrusion width = 0.45mm
; infill extrusion width = 0.45mm
; solid infill extrusion width = 0.45mm
; top infill extrusion width = 0.40mm
; support material extrusion width = 0.35mm
; first layer extrusion width = 0.42mm

M73 P0 R48
M73 Q0 S48
M201 X1000 Y1000 Z200 E5000 ; sets maximum accelerations, mm/sec^2
M203 X200 Y200 Z12 E120 ; sets maximum feedrates, mm / sec
M204 S1250 T1250 ; sets acceleration (S) and retract acceleration (R), mm/sec^2
M205 X8.00 Y8.00 Z0.40 E4.50 ; sets the jerk limits, mm/sec
M205 S0 T0 ; sets the minimum extruding and travel feed rate, mm/sec

; printing object top-axle-bracket.stl id:2 copy 0
; stop printing object top-axle-bracket.stl id:2 copy 0
; printing object steer-bracket(1).stl id:0 copy 0
; stop printing object steer-bracket(1).stl id:0 copy 0
; printing object bottom-axle-bracket.stl id:1 copy 0
; stop printing object bottom-axle-bracket.stl id:1 copy 0

;TYPE:Custom
M862.3 P "MK3S" ; printer model check
M862.1 P0.4 ; nozzle diameter check
M115 U3.14.0 ; tell printer latest fw version
G90 ; use absolute coordinates
M83 ; extruder relative mode
M104 S240 ; set extruder temp
M140 S85 ; set bed temp
M190 S85 ; wait for bed temp
M109 S240 ; wait for extruder temp
G28 W ; home all without mesh bed level
G80 X79.6144 Y77.7757 W113.54 H58.858 ; mesh bed levelling

G1 Z0.2 F720
G1 Y-3 F1000 ; go outside print area
G92 E0
G1 X60 E9 F1000 ; intro line
G1 X100 E12.5 F1000 ; intro line
M73 P0 R47

G92 E0
M221 S95

; Don't change E values below. Excessive value can damage the printer.
M907 E430 ; set extruder motor current
G21 ; set units to millimeters
G90 ; use absolute coordinates
M83 ; use relative distances for extrusion

M900 K0.08 ; Filament gcode LA 1.5
M900 K45 ; Filament gcode LA 1.0




M107
;LAYER_CHANGE
;Z:0.2
;HEIGHT:0.2
G1 E-1 F2100
G1 Z.4 F720
G1 X86.248 Y81.017 F10800
G1 Z.2 F720
G1 E1 F2100
M204 S800
;TYPE:Skirt/Brim
;WIDTH:0.42
G1 F1200
G1 X86.652 Y80.613 E.01791
G1 X88.205 Y79.421 E.06138
G1 X88.7 Y79.136 E.01791
G1 X90.509 Y78.386 E.0614
G1 X91.061 Y78.239 E.01791
G1 X93.288 Y77.964 E.07036
G1 X183.573 Y77.983 E2.83082
G1 X185.514 Y78.239 E.06139
G1 X186.066 Y78.386 E.01791
G1 X187.875 Y79.136 E.0614
G1 X188.37 Y79.421 E.01791
G1 X189.923 Y80.613 E.06138
G1 X190.327 Y81.017 E.01791
G1 X191.519 Y82.57 E.06138
G1 X191.805 Y83.065 E.01792
G1 X192.554 Y84.874 E.06139
G1 X192.702 Y85.426 E.01792
G1 X192.957 Y87.367 E.06138
G1 X192.967 Y87.852 E.01521
G1 X189.167 Y129.456 E1.30989
G1 X188.987 Y130.836 E.04364
G1 X188.839 Y131.388 E.01792
G1 X188.339 Y132.594 E.04093
G1 X188.054 Y133.089 E.01791
G1 X187.259 Y134.124 E.04092
G1 X186.855 Y134.528 E.01791
G1 X185.82 Y135.323 E.04092
G1 X185.325 Y135.609 E.01792
G1 X184.119 Y136.108 E.04092
G1 X183.567 Y136.256 E.01792
G1 X181.987 Y136.445 E.04989
G1 X86.987 Y136.445 E2.97866
G1 X85.408 Y136.256 E.04986
G1 X84.856 Y136.108 E.01792
G1 X83.65 Y135.609 E.04092
G1 X83.155 Y135.323 E.01792
G1 X82.12 Y134.528 E.04092
G1 X81.716 Y134.124 E.01791
G1 X80.921 Y133.089 E.04092
G1 X80.635 Y132.594 E.01792
G1 X80.136 Y131.388 E.04092
G1 X79.988 Y130.836 E.01792
G1 X79.803 Y129.128 E.05387
G1 X80.957 Y109.475 E.61727
G1 X83.873 Y85.426 E.75956
G1 X84.021 Y84.874 E.01792
G1 X84.77 Y83.065 E.06139
G1 X85.056 Y82.57 E.01792
G1 X86.211 Y81.065 E.05948
M204 S1000
;WIPE_START
G1 F8640
G1 X86.248 Y81.017 E-.01399
G1 X86.652 Y80.613 E-.13192
G1 X88.205 Y79.421 E-.45204
G1 X88.7 Y79.136 E-.13189
G1 X89.781 Y78.688 E-.27016
;WIPE_END
G1 Z.4 F720
; printing object top-axle-bracket.stl id:2 copy 0
G1 X151.824 Y89.616 F10800
G1 Z.2 F720
G1 E1 F2100
M204 S800
;TYPE:Perimeter
;WIDTH:0.419999
G1 F1200
G1 X151.413 Y89.109 E.02046
G1 X151.117 Y88.445 E.02279
G1 X151.003 Y87.727 E.02279
G1 X151.079 Y87.003 E.02283
G1 X151.339 Y86.325 E.02277
G1 X151.767 Y85.736 E.02283
G1 X152.332 Y85.279 E.02278
G1 X152.996 Y84.983 E.02279
G1 X153.662 Y84.876 E.02115
G1 X154.424 Y84.943 E.02398
G1 X155.116 Y85.205 E.0232
G1 X155.704 Y85.632 E.02278
G1 X156.162 Y86.197 E.0228
G1 X156.458 Y86.861 E.02279
G1 X156.572 Y87.579 E.02279
G1 X156.496 Y88.302 E.02279
G1 X156.236 Y88.981 E.0228
G1 X155.808 Y89.569 E.0228
G1 X155.244 Y90.027 E.02278
G1 X154.579 Y90.323 E.02282
G1 X153.861 Y90.437 E.02279
G1 X153.138 Y90.361 E.02279
G1 X152.459 Y90.101 E.0228
G1 X151.871 Y89.674 E.02278
G1 X151.862 Y89.662 E.00047
M204 S1000
G1 X151.862 Y89.662 F10800
G1 X152.085 Y89.355
M204 S800
;TYPE:External perimeter
G1 F1200
G1 X151.712 Y88.879 E.01896
G1 X151.466 Y88.3 E.01972
G1 X151.377 Y87.677 E.01973
G1 X151.453 Y87.053 E.01971
G1 X151.688 Y86.469 E.01974
G1 X152.066 Y85.966 E.01973
G1 X152.561 Y85.578 E.01972
G1 X153.14 Y85.331 E.01974
G1 X153.711 Y85.249 E.01809
G1 X154.383 Y85.318 E.02118
G1 X154.971 Y85.553 E.01985
G1 X155.475 Y85.931 E.01975
G1 X155.863 Y86.426 E.01972
G1 X156.109 Y87.005 E.01972
G1 X156.198 Y87.628 E.01973
G1 X156.122 Y88.253 E.01974
G1 X155.887 Y88.837 E.01974
G1 X155.509 Y89.34 E.01973
G1 X155.014 Y89.728 E.01972
G1 X154.435 Y89.975 E.01974
G1 X153.812 Y90.063 E.01973
G1 X153.188 Y89.987 E.01971
G1 X152.604 Y89.752 E.01974
G1 X152.128 Y89.395 E.01866
M204 S1000
;WIPE_START
G1 F8640
G1 X152.085 Y89.355 E-.01356
G1 X151.712 Y88.879 E-.13964
G1 X151.466 Y88.3 E-.14526
G1 X151.377 Y87.677 E-.14531
G1 X151.453 Y87.053 E-.14515
G1 X151.688 Y86.469 E-.14536
G1 X152.066 Y85.966 E-.14528
G1 X152.477 Y85.644 E-.12044
;WIPE_END
G1 Z.4 F720
G1 X124.176 Y85.249 F10800
G1 Z.2 F720
G1 E1 F2100
M204 S800
;TYPE:Perimeter
G1 F1200
G1 X124.704 Y85.632 E.02045
G1 X125.162 Y86.197 E.0228
G1 X125.458 Y86.861 E.02279
G1 X125.572 Y87.579 E.02279
G1 X125.496 Y88.302 E.02279
G1 X125.236 Y88.981 E.0228
G1 X124.808 Y89.569 E.0228
G1 X124.244 Y90.027 E.02278
G1 X123.579 Y90.323 E.02282
G1 X122.861 Y90.437 E.02279
G1 X122.138 Y90.361 E.02279
G1 X121.459 Y90.101 E.0228
G1 X120.871 Y89.674 E.02278
G1 X120.413 Y89.109 E.0228
G1 X120.117 Y88.445 E.02279
G1 X120.003 Y87.727 E.02279
G1 X120.079 Y87.004 E.02279
G1 X120.34 Y86.325 E.02281
G1 X120.767 Y85.736 E.02281
G1 X121.332 Y85.279 E.02278
G1 X121.996 Y84.983 E.02279
G1 X122.662 Y84.876 E.02115
G1 X123.424 Y84.943 E.02398
G1 X124.116 Y85.205 E.0232
G1 X124.128 Y85.213 E.00045
M204 S1000
G1 X124.128 Y85.213 F10800
G1 X123.992 Y85.568
M204 S800
;TYPE:External perimeter
G1 F1200
G1 X124.474 Y85.931 E.01892
G1 X124.863 Y86.426 E.01974
G1 X125.109 Y87.005 E.01972
G1 X125.198 Y87.628 E.01973
G1 X125.122 Y88.253 E.01974
G1 X124.887 Y88.837 E.01974
G1 X124.509 Y89.34 E.01973
G1 X124.014 Y89.728 E.01972
G1 X123.435 Y89.975 E.01974
G1 X122.812 Y90.063 E.01973
G1 X122.188 Y89.987 E.01971
G1 X121.604 Y89.752 E.01974
G1 X121.101 Y89.375 E.01971
G1 X120.713 Y88.879 E.01974
G1 X120.466 Y88.3 E.01974
G1 X120.377 Y87.677 E.01973
G1 X120.453 Y87.053 E.01971
G1 X120.688 Y86.469 E.01974
G1 X121.066 Y85.966 E.01973
G1 X121.561 Y85.578 E.01972
G1 X122.14 Y85.331 E.01974
G1 X122.711 Y85.249 E.01809
G1 X123.383 Y85.318 E.02118
G1 X123.939 Y85.54 E.01877
M204 S1000
;WIPE_START
G1 F8640
G1 X123.992 Y85.568 E-.01384
G1 X124.474 Y85.931 E-.13933
G1 X124.863 Y86.426 E-.14537
G1 X125.109 Y87.005 E-.14526
G1 X125.198 Y87.628 E-.14531
G1 X125.122 Y88.253 E-.14538
G1 X124.887 Y88.837 E-.14536
G1 X124.575 Y89.253 E-.12015
;WIPE_END
G1 Z.4 F720
G1 X95.969 Y88.372 F10800
G1 Z.2 F720
G1 E1 F2100
M204 S800
;TYPE:Perimeter
G1 F1200
G1 X95.736 Y88.981 E.02044
G1 X95.308 Y89.569 E.0228
M73 Q1 S48
G1 X94.744 Y90.027 E.02278
G1 X94.079 Y90.323 E.02282
G1 X93.361 Y90.437 E.02279
G1 X92.638 Y90.361 E.02279
G1 X91.959 Y90.101 E.0228
G1 X91.371 Y89.674 E.02278
G1 X90.913 Y89.109 E.0228
G1 X90.617 Y88.445 E.02279
M73 P1 R47
G1 X90.503 Y87.727 E.02279
G1 X90.579 Y87.004 E.02279
G1 X90.84 Y86.325 E.02281
G1 X91.267 Y85.736 E.02281
G1 X91.832 Y85.279 E.02278
G1 X92.496 Y84.983 E.02279
G1 X93.162 Y84.876 E.02115
G1 X93.924 Y84.943 E.02398
G1 X94.616 Y85.205 E.0232
G1 X95.204 Y85.632 E.02278
G1 X95.662 Y86.197 E.0228
G1 X95.958 Y86.861 E.02279
G1 X96.072 Y87.579 E.02279
G1 X95.996 Y88.302 E.02279
G1 X95.991 Y88.316 E.00047
M204 S1000
G1 X95.991 Y88.316 F10800
G1 X95.613 Y88.276
M204 S800
;TYPE:External perimeter
G1 F1200
G1 X95.387 Y88.837 E.01896
G1 X95.009 Y89.34 E.01973
G1 X94.514 Y89.728 E.01972
G1 X93.935 Y89.975 E.01974
G1 X93.312 Y90.063 E.01973
G1 X92.688 Y89.987 E.01971
G1 X92.104 Y89.752 E.01974
G1 X91.601 Y89.375 E.01971
G1 X91.212 Y88.879 E.01976
G1 X90.966 Y88.3 E.01972
G1 X90.877 Y87.677 E.01973
G1 X90.953 Y87.053 E.01971
G1 X91.188 Y86.469 E.01974
G1 X91.566 Y85.966 E.01973
G1 X92.061 Y85.578 E.01972
G1 X92.64 Y85.331 E.01974
G1 X93.211 Y85.249 E.01809
G1 X93.883 Y85.318 E.02118
G1 X94.471 Y85.553 E.01985
G1 X94.974 Y85.931 E.01973
G1 X95.363 Y86.426 E.01974
G1 X95.609 Y87.005 E.01972
G1 X95.698 Y87.628 E.01973
G1 X95.626 Y88.218 E.01864
M204 S1000
;WIPE_START
G1 F8640
G1 X95.613 Y88.276 E-.01372
G1 X95.387 Y88.837 E-.13965
G1 X95.009 Y89.34 E-.14528
G1 X94.514 Y89.728 E-.14522
G1 X93.935 Y89.975 E-.14535
G1 X93.312 Y90.063 E-.14528
G1 X92.688 Y89.987 E-.14515
G1 X92.204 Y89.793 E-.12035
;WIPE_END
G1 Z.4 F720
G1 X181.325 Y85.689 F10800
G1 Z.2 F720
G1 E1 F2100
M204 S800
;TYPE:Perimeter
G1 F1200
G1 X181.832 Y85.279 E.02044
G1 X182.496 Y84.983 E.02279
G1 X183.162 Y84.876 E.02115
G1 X183.924 Y84.943 E.02398
G1 X184.616 Y85.205 E.0232
G1 X185.204 Y85.632 E.02278
G1 X185.662 Y86.197 E.0228
G1 X185.958 Y86.861 E.02279
G1 X186.072 Y87.579 E.02279
G1 X185.996 Y88.302 E.02279
G1 X185.736 Y88.981 E.0228
G1 X185.308 Y89.569 E.0228
G1 X184.744 Y90.027 E.02278
G1 X184.079 Y90.323 E.02282
G1 X183.361 Y90.437 E.02279
G1 X182.638 Y90.361 E.02279
G1 X181.959 Y90.101 E.0228
G1 X181.371 Y89.674 E.02278
G1 X180.913 Y89.109 E.0228
G1 X180.617 Y88.445 E.02279
G1 X180.503 Y87.727 E.02279
G1 X180.579 Y87.004 E.02279
G1 X180.84 Y86.325 E.02281
G1 X181.267 Y85.736 E.02281
G1 X181.278 Y85.727 E.00045
M204 S1000
G1 X181.586 Y85.95 F10800
M204 S800
;TYPE:External perimeter
G1 F1200
G1 X182.061 Y85.578 E.01892
G1 X182.64 Y85.331 E.01974
G1 X183.211 Y85.249 E.01809
G1 X183.883 Y85.318 E.02118
G1 X184.471 Y85.553 E.01985
G1 X184.974 Y85.931 E.01973
G1 X185.363 Y86.426 E.01974
G1 X185.609 Y87.005 E.01972
G1 X185.698 Y87.628 E.01973
G1 X185.622 Y88.253 E.01974
G1 X185.387 Y88.837 E.01974
G1 X185.009 Y89.34 E.01973
G1 X184.514 Y89.728 E.01972
G1 X183.935 Y89.975 E.01974
G1 X183.312 Y90.063 E.01973
G1 X182.688 Y89.987 E.01971
G1 X182.104 Y89.752 E.01974
G1 X181.601 Y89.375 E.01971
G1 X181.212 Y88.879 E.01976
G1 X180.966 Y88.3 E.01972
G1 X180.877 Y87.677 E.01973
G1 X180.953 Y87.053 E.01971
G1 X181.188 Y86.469 E.01974
G1 X181.545 Y85.994 E.01863
M204 S1000
;WIPE_START
G1 F8640
G1 X181.586 Y85.95 E-.01389
G1 X182.061 Y85.578 E-.13931
G1 X182.64 Y85.331 E-.14535
G1 X183.211 Y85.249 E-.1332
G1 X183.883 Y85.318 E-.15598
G1 X184.471 Y85.553 E-.14621
G1 X184.974 Y85.931 E-.14528
G1 X185.297 Y86.343 E-.12078
;WIPE_END
G1 Z.4 F720
G1 X189.994 Y87.653 F10800
G1 Z.2 F720
G1 E1 F2100
M204 S800
;TYPE:Perimeter
G1 F1200
G1 X189.96 Y87.907 E.00804
G1 X189.765 Y89.388 E.04684
G1 X189.095 Y91.006 E.05491
M73 Q1 S47
G1 X188.03 Y92.395 E.05488
G1 X186.641 Y93.46 E.05488
G1 X185.023 Y94.13 E.05491
G1 X183.236 Y94.366 E.05652
G1 X93.339 Y94.366 E2.81865
G1 X91.552 Y94.13 E.05652
G1 X89.935 Y93.46 E.05488
G1 X88.546 Y92.395 E.05488
G1 X87.48 Y91.006 E.0549
G1 X86.81 Y89.388 E.05491
G1 X86.581 Y87.653 E.05487
G1 X86.81 Y85.917 E.0549
G1 X87.48 Y84.3 E.05488
G1 X88.546 Y82.911 E.0549
G1 X89.935 Y81.845 E.0549
G1 X91.552 Y81.175 E.05488
G1 X93.339 Y80.94 E.05651
G1 X183.32 Y80.951 E2.82129
G1 X185.023 Y81.175 E.05386
G1 X186.641 Y81.845 E.05491
G1 X188.03 Y82.911 E.0549
G1 X189.095 Y84.3 E.05488
G1 X189.765 Y85.917 E.05488
G1 X189.986 Y87.593 E.053
M204 S1000
G1 X189.986 Y87.593 F10800
G1 X190.374 Y87.653
M204 S800
;TYPE:External perimeter
G1 F1200
G1 X190.334 Y87.957 E.00961
G1 X190.133 Y89.487 E.04838
G1 X189.425 Y91.196 E.058
G1 X188.298 Y92.664 E.05803
G1 X186.831 Y93.79 E.05798
G1 X185.122 Y94.498 E.058
G1 X183.261 Y94.743 E.05885
G1 X93.314 Y94.743 E2.82022
G1 X91.453 Y94.498 E.05885
G1 X89.744 Y93.79 E.058
G1 X88.277 Y92.664 E.05798
G1 X87.151 Y91.196 E.05801
G1 X86.443 Y89.487 E.058
G1 X86.201 Y87.653 E.058
G1 X86.443 Y85.819 E.058
G1 X87.151 Y84.11 E.058
G1 X88.277 Y82.642 E.05801
G1 X89.744 Y81.516 E.05798
G1 X91.453 Y80.808 E.058
G1 X93.314 Y80.563 E.05885
G1 X183.345 Y80.574 E2.82285
G1 X185.122 Y80.808 E.0562
G1 X186.831 Y81.516 E.058
G1 X188.298 Y82.642 E.05798
G1 X189.425 Y84.11 E.05803
G1 X190.133 Y85.819 E.058
G1 X190.366 Y87.593 E.0561
M204 S1000
;WIPE_START
G1 F8640
G1 X190.374 Y87.653 E-.01398
G1 X190.334 Y87.957 E-.0708
G1 X190.133 Y89.487 E-.35632
G1 X189.425 Y91.196 E-.42714
G1 X189.078 Y91.649 E-.13176
;WIPE_END
G1 Z.4 F720
G1 X185.769 Y81.668 F10800
G1 Z.2 F720
G1 E1 F2100
M204 S800
;TYPE:Solid infill
;WIDTH:0.420986
G1 F1200
G1 X188.959 Y84.857 E.1418
G1 X189.337 Y85.77 E.03106
G1 X185.17 Y81.603 E.18526
G1 X184.935 Y81.506 E.00799
G1 X184.478 Y81.446 E.01449
G1 X189.495 Y86.463 E.22304
G1 X189.576 Y87.078 E.0195
G1 X183.862 Y81.365 E.25401
G1 X183.253 Y81.29 E.01929
M73 Q2 S47
G1 X189.647 Y87.684 E.28426
G1 X189.585 Y88.157 E.015
M73 P2 R47
G1 X182.718 Y81.29 E.30529
G1 X182.184 Y81.29 E.01679
G1 X189.523 Y88.629 E.32627
G1 X189.461 Y89.102 E.015
G1 X181.649 Y81.29 E.3473
G1 X181.114 Y81.29 E.01682
G1 X189.344 Y89.519 E.36586
G1 X189.187 Y89.898 E.0129
G1 X186.344 Y87.055 E.12639
G1 X186.416 Y87.661 E.01918
G1 X189.03 Y90.276 E.11623
G1 X188.874 Y90.654 E.01286
G1 X186.358 Y88.138 E.11186
G1 X186.331 Y88.355 E.00687
G1 X186.268 Y88.582 E.00741
G1 X188.678 Y90.992 E.10714
G1 X188.446 Y91.295 E.012
G1 X186.108 Y88.958 E.10392
G1 X185.997 Y89.218 E.00889
G1 X185.927 Y89.31 E.00363
G1 X188.214 Y91.597 E.10167
G1 X187.981 Y91.9 E.01202
G1 X185.695 Y89.613 E.10165
G1 X185.501 Y89.866 E.01002
G1 X185.451 Y89.904 E.00197
G1 X187.738 Y92.191 E.10167
G1 X187.435 Y92.423 E.012
M73 P2 R46
G1 X185.148 Y90.136 E.10167
G1 X184.844 Y90.367 E.012
G1 X187.133 Y92.655 E.10174
G1 X186.83 Y92.887 E.012
G1 X184.469 Y90.526 E.10496
G1 X184.081 Y90.672 E.01303
G1 X186.528 Y93.119 E.10879
G1 X186.469 Y93.164 E.00233
G1 X186.164 Y93.291 E.01039
G1 X183.612 Y90.738 E.11348
G1 X183.232 Y90.78 E.01202
G1 X183.102 Y90.763 E.00412
G1 X185.786 Y93.447 E.11932
G1 X185.408 Y93.604 E.01287
G1 X182.18 Y90.376 E.14351
M204 S1000
;WIPE_START
G1 F8640
G1 X185.242 Y93.438 E-1
;WIPE_END
G1 Z.4 F720
G1 X184.105 Y84.816 F10800
G1 Z.2 F720
G1 E1 F2100
M204 S800
G1 F1200
G1 X180.579 Y81.29 E.15676
G1 X180.045 Y81.29 E.01679
G1 X183.291 Y84.536 E.14431
G1 X183.126 Y84.538 E.00519
G1 X182.801 Y84.581 E.01031
G1 X179.51 Y81.29 E.14631
G1 X178.975 Y81.29 E.01682
G1 X182.358 Y84.672 E.15038
G1 X181.98 Y84.829 E.01287
G1 X178.44 Y81.29 E.15736
G1 X177.906 Y81.29 E.01679
G1 X181.625 Y85.009 E.16534
G1 X181.323 Y85.241 E.01197
G1 X177.371 Y81.29 E.17567
G1 X176.836 Y81.289 E.01682
G1 X181.036 Y85.489 E.18672
G1 X180.8 Y85.787 E.01195
G1 X176.302 Y81.289 E.19997
G1 X175.767 Y81.289 E.01682
G1 X180.579 Y86.101 E.21393
G1 X180.412 Y86.469 E.0127
G1 X175.232 Y81.289 E.23029
G1 X174.697 Y81.289 E.01682
G1 X180.268 Y86.86 E.24767
G1 X180.198 Y87.325 E.01478
G1 X174.163 Y81.289 E.26832
G1 X173.628 Y81.289 E.01682
G1 X180.181 Y87.842 E.29133
G1 X180.244 Y88.355 E.01625
G1 X180.275 Y88.47 E.00374
G1 X173.093 Y81.289 E.31927
G1 X172.558 Y81.289 E.01682
