; generated by PrusaSlicer 2.8.1+linux-x64-GTK3 on 2024-12-16 at 09:38:08 UTC


;
;
; 

; external perimeters extrusion width = 0.45mm
; perimeters extrusion width = 0.45mm
; infill extrusion width = 0.45mm
; solid infill extrusion width = 0.45mm
; top infill extrusion width = 0.40mm
; support material extrusion width = 0.35mm
; first layer extrusion width = 0.42mm

; external perimeters extrusion width = 0.45mm
; perimeters extrusion width = 0.45mm
; infill extrusion width = 0.45mm
; solid infill extrusion width = 0.45mm
; top infill extrusion width = 0.40mm
; support material extrusion width = 0.35mm
; first layer extrusion width = 0.42mm

M73 P0 R91
M73 Q0 S92
M201 X1000 Y1000 Z200 E5000 ; sets maximum accelerations, mm/sec^2
M203 X200 Y200 Z12 E120 ; sets maximum feedrates, mm / sec
M204 S1250 T1250 ; sets acceleration (S) and retract acceleration (R), mm/sec^2
M205 X8.00 Y8.00 Z0.40 E4.50 ; sets the jerk limits, mm/sec
M205 S0 T0 ; sets the minimum extruding and travel feed rate, mm/sec

; printing object rear-dif-bottom.stl id:0 copy 0
; stop printing object rear-dif-bottom.stl id:0 copy 0
; printing object rear-dif-top.stl id:1 copy 0
; stop printing object rear-dif-top.stl id:1 copy 0

;TYPE:Custom
M862.3 P "MK3S" ; printer model check
M862.1 P0.4 ; nozzle diameter check
M115 U3.14.0 ; tell printer latest fw version
G90 ; use absolute coordinates
M83 ; extruder relative mode
M104 S240 ; set extruder temp
M140 S85 ; set bed temp
M190 S85 ; wait for bed temp
M109 S240 ; wait for extruder temp
G28 W ; home all without mesh bed level
G80 X64.8687 Y93.6996 W131.339 H45.1509 ; mesh bed levelling

G1 Z0.2 F720
G1 Y-3 F1000 ; go outside print area
G92 E0
G1 X60 E9 F1000 ; intro line
G1 X100 E12.5 F1000 ; intro line
M73 P0 R90

G92 E0
M221 S95

; Don't change E values below. Excessive value can damage the printer.
M907 E430 ; set extruder motor current
G21 ; set units to millimeters
G90 ; use absolute coordinates
M83 ; use relative distances for extrusion

M900 K0.08 ; Filament gcode LA 1.5
M900 K45 ; Filament gcode LA 1.0




M107
;LAYER_CHANGE
;Z:0.2
;HEIGHT:0.2
G1 E-1 F2100
G1 Z.4 F720
G1 X66.481 Y94.026 F10800
G1 Z.2 F720
G1 E1 F2100
M204 S800
;TYPE:Skirt/Brim
;WIDTH:0.42
G1 F1200
G1 X67.246 Y93.888 E.02437
G1 X193.669 Y93.888 E3.9639
G1 X194.918 Y94.279 E.04104
G1 X195.72 Y95.312 E.041
G1 X195.858 Y96.064 E.02397
G1 X196.019 Y136.473 E1.26701
G1 X195.628 Y137.722 E.04104
G1 X194.595 Y138.524 E.041
G1 X193.831 Y138.662 E.02434
G1 X73.831 Y138.662 E3.76252
G1 X72.583 Y138.271 E.04101
G1 X71.713 Y137.026 E.04762
G1 X65.128 Y111.798 E.81751
G1 X65.057 Y111.246 E.01745
G1 X65.057 Y96.077 E.47561
G1 X65.448 Y94.828 E.04104
G1 X66.434 Y94.063 E.03913
M204 S1000
;WIPE_START
G1 F8640
G1 X66.481 Y94.026 E-.01381
G1 X67.246 Y93.888 E-.17949
G1 X70.74 Y93.888 E-.8067
;WIPE_END
G1 Z.4 F720
; printing object rear-dif-bottom.stl id:0 copy 0
G1 X74.618 Y125.26 F10800
G1 Z.2 F720
G1 E1 F2100
M204 S800
;TYPE:Perimeter
;WIDTH:0.419999
G1 F1200
G1 X193.044 Y125.26 E3.71316
G1 X193.044 Y130.473 E.16345
G1 X193.044 Y135.686 E.16345
G1 X74.618 Y135.686 E3.71316
G1 X74.618 Y125.32 E.32502
M204 S1000
G1 X74.618 Y125.32 F10800
G1 X74.241 Y124.883
M204 S800
;TYPE:External perimeter
G1 F1200
G1 X193.421 Y124.883 E3.7368
G1 X193.421 Y130.473 E.17527
M73 Q0 S91
G1 X193.421 Y136.063 E.17527
G1 X74.241 Y136.063 E3.7368
G1 X74.241 Y124.943 E.34866
M204 S1000
;WIPE_START
G1 F8640
G1 X74.241 Y124.883 E-.01385
G1 X78.512 Y124.883 E-.98615
;WIPE_END
G1 Z.4 F720
G1 X192.874 Y126.194 F10800
G1 Z.2 F720
G1 E1 F2100
M204 S800
;TYPE:Solid infill
;WIDTH:0.420775
G1 F1200
G1 X192.28 Y125.6 E.02639
G1 X191.745 Y125.6 E.01681
G1 X192.704 Y126.559 E.04261
G1 X192.704 Y127.093 E.01678
G1 X191.211 Y125.6 E.06634
G1 X190.677 Y125.6 E.01678
G1 X192.704 Y127.627 E.09007
G1 X192.704 Y128.162 E.01681
G1 X190.142 Y125.6 E.11384
G1 X189.608 Y125.6 E.01678
G1 X192.704 Y128.696 E.13756
G1 X192.704 Y129.231 E.01681
G1 X189.074 Y125.6 E.16131
G1 X188.539 Y125.6 E.01681
G1 X192.704 Y129.765 E.18506
G1 X192.704 Y130.299 E.01678
G1 X188.005 Y125.6 E.20879
G1 X187.47 Y125.6 E.01681
G1 X192.704 Y130.834 E.23256
G1 X192.704 Y131.368 E.01678
G1 X186.936 Y125.6 E.25629
G1 X186.402 Y125.6 E.01678
M73 P1 R90
M73 Q1 S91
G1 X192.704 Y131.902 E.28002
G1 X192.704 Y132.437 E.01681
G1 X185.867 Y125.6 E.30379
G1 X185.333 Y125.6 E.01678
G1 X192.704 Y132.971 E.32751
G1 X192.704 Y133.506 E.01681
G1 X184.799 Y125.6 E.35126
G1 X184.264 Y125.6 E.01681
G1 X192.704 Y134.04 E.37501
G1 X192.704 Y134.574 E.01678
G1 X183.73 Y125.6 E.39874
G1 X183.196 Y125.6 E.01678
G1 X192.704 Y135.109 E.42249
G1 X192.704 Y135.347 E.00748
G1 X192.408 Y135.347 E.0093
G1 X182.661 Y125.6 E.43309
G1 X182.127 Y125.6 E.01678
G1 X191.874 Y135.347 E.43309
G1 X191.34 Y135.347 E.01678
G1 X181.592 Y125.6 E.43311
G1 X181.058 Y125.6 E.01678
G1 X190.805 Y135.347 E.43309
G1 X190.271 Y135.347 E.01678
M73 P1 R89
G1 X180.524 Y125.6 E.43309
G1 X179.989 Y125.6 E.01681
G1 X189.736 Y135.347 E.43309
G1 X189.202 Y135.347 E.01678
G1 X179.455 Y125.6 E.43309
G1 X178.921 Y125.6 E.01678
G1 X188.668 Y135.347 E.43309
G1 X188.133 Y135.347 E.01681
G1 X178.386 Y125.6 E.43309
G1 X177.852 Y125.6 E.01678
G1 X187.599 Y135.347 E.43309
G1 X187.065 Y135.347 E.01678
G1 X177.317 Y125.6 E.43311
G1 X176.783 Y125.6 E.01678
G1 X186.53 Y135.347 E.43309
G1 X185.996 Y135.347 E.01678
G1 X176.249 Y125.6 E.43309
G1 X175.714 Y125.6 E.01681
G1 X185.462 Y135.347 E.43311
G1 X184.927 Y135.347 E.01681
G1 X175.18 Y125.6 E.43309
G1 X174.646 Y125.6 E.01678
G1 X184.393 Y135.347 E.43309
G1 X183.858 Y135.347 E.01681
G1 X174.111 Y125.6 E.43309
G1 X173.577 Y125.6 E.01678
G1 X183.324 Y135.347 E.43309
G1 X182.79 Y135.347 E.01678
G1 X173.043 Y125.6 E.43309
G1 X172.508 Y125.6 E.01681
G1 X182.255 Y135.347 E.43309
G1 X181.721 Y135.347 E.01678
G1 X171.974 Y125.6 E.43309
G1 X171.439 Y125.6 E.01681
G1 X181.187 Y135.347 E.43311
G1 X180.652 Y135.347 E.01681
G1 X170.905 Y125.6 E.43309
G1 X170.371 Y125.6 E.01678
G1 X180.118 Y135.347 E.43309
G1 X179.583 Y135.347 E.01681
G1 X169.836 Y125.6 E.43309
G1 X169.302 Y125.6 E.01678
G1 X179.049 Y135.347 E.43309
G1 X178.515 Y135.347 E.01678
G1 X168.768 Y125.6 E.43309
G1 X168.233 Y125.6 E.01681
G1 X177.98 Y135.347 E.43309
G1 X177.446 Y135.347 E.01678
G1 X167.699 Y125.6 E.43309
G1 X167.165 Y125.6 E.01678
G1 X176.912 Y135.347 E.43309
G1 X176.377 Y135.347 E.01681
G1 X166.63 Y125.6 E.43309
G1 X166.096 Y125.6 E.01678
G1 X175.843 Y135.347 E.43309
G1 X175.309 Y135.347 E.01678
G1 X165.561 Y125.6 E.43311
G1 X165.027 Y125.6 E.01678
G1 X174.774 Y135.347 E.43309
G1 X174.24 Y135.347 E.01678
G1 X164.493 Y125.6 E.43309
G1 X163.958 Y125.6 E.01681
G1 X173.705 Y135.347 E.43309
G1 X173.171 Y135.347 E.01678
G1 X163.424 Y125.6 E.43309
G1 X162.89 Y125.6 E.01678
G1 X172.637 Y135.347 E.43309
G1 X172.102 Y135.347 E.01681
G1 X162.355 Y125.6 E.43309
G1 X161.821 Y125.6 E.01678
G1 X171.568 Y135.347 E.43309
G1 X171.034 Y135.347 E.01678
G1 X161.286 Y125.6 E.43311
G1 X160.752 Y125.6 E.01678
G1 X170.499 Y135.347 E.43309
G1 X169.965 Y135.347 E.01678
G1 X160.218 Y125.6 E.43309
G1 X159.683 Y125.6 E.01681
G1 X169.431 Y135.347 E.43311
G1 X168.896 Y135.347 E.01681
G1 X159.149 Y125.6 E.43309
G1 X158.615 Y125.6 E.01678
G1 X168.362 Y135.347 E.43309
G1 X167.827 Y135.347 E.01681
G1 X158.08 Y125.6 E.43309
G1 X157.546 Y125.6 E.01678
G1 X167.293 Y135.347 E.43309
G1 X166.759 Y135.347 E.01678
G1 X157.012 Y125.6 E.43309
G1 X156.477 Y125.6 E.01681
G1 X166.224 Y135.347 E.43309
G1 X165.69 Y135.347 E.01678
G1 X155.943 Y125.6 E.43309
G1 X155.408 Y125.6 E.01681
G1 X165.156 Y135.347 E.43311
G1 X164.621 Y135.347 E.01681
G1 X154.874 Y125.6 E.43309
G1 X154.34 Y125.6 E.01678
G1 X164.087 Y135.347 E.43309
G1 X163.552 Y135.347 E.01681
G1 X153.805 Y125.6 E.43309
G1 X153.271 Y125.6 E.01678
G1 X163.018 Y135.347 E.43309
G1 X162.484 Y135.347 E.01678
G1 X152.737 Y125.6 E.43309
G1 X152.202 Y125.6 E.01681
G1 X161.949 Y135.347 E.43309
G1 X161.415 Y135.347 E.01678
G1 X151.668 Y125.6 E.43309
G1 X151.133 Y125.6 E.01681
G1 X160.881 Y135.347 E.43311
G1 X160.346 Y135.347 E.01681
M73 Q1 S90
G1 X150.599 Y125.6 E.43309
G1 X150.065 Y125.6 E.01678
G1 X159.812 Y135.347 E.43309
G1 X159.278 Y135.347 E.01678
G1 X149.53 Y125.6 E.43311
G1 X148.996 Y125.6 E.01678
G1 X158.743 Y135.347 E.43309
G1 X158.209 Y135.347 E.01678
G1 X148.462 Y125.6 E.43309
G1 X147.927 Y125.6 E.01681
G1 X157.674 Y135.347 E.43309
G1 X157.14 Y135.347 E.01678
G1 X147.393 Y125.6 E.43309
G1 X146.859 Y125.6 E.01678
G1 X156.606 Y135.347 E.43309
G1 X156.071 Y135.347 E.01681
G1 X146.324 Y125.6 E.43309
G1 X145.79 Y125.6 E.01678
M73 P2 R89
G1 X155.537 Y135.347 E.43309
G1 X155.003 Y135.347 E.01678
G1 X145.255 Y125.6 E.43311
G1 X144.721 Y125.6 E.01678
M73 Q2 S90
G1 X154.468 Y135.347 E.43309
G1 X153.934 Y135.347 E.01678
G1 X144.187 Y125.6 E.43309
G1 X143.652 Y125.6 E.01681
G1 X153.399 Y135.347 E.43309
G1 X152.865 Y135.347 E.01678
G1 X143.118 Y125.6 E.43309
G1 X142.584 Y125.6 E.01678
G1 X152.331 Y135.347 E.43309
G1 X151.796 Y135.347 E.01681
G1 X142.049 Y125.6 E.43309
G1 X141.515 Y125.6 E.01678
G1 X151.262 Y135.347 E.43309
G1 X150.728 Y135.347 E.01678
G1 X140.98 Y125.6 E.43311
G1 X140.446 Y125.6 E.01678
G1 X150.193 Y135.347 E.43309
G1 X149.659 Y135.347 E.01678
G1 X139.912 Y125.6 E.43309
G1 X139.377 Y125.6 E.01681
G1 X149.125 Y135.347 E.43311
G1 X148.59 Y135.347 E.01681
G1 X138.843 Y125.6 E.43309
G1 X138.309 Y125.6 E.01678
G1 X148.056 Y135.347 E.43309
G1 X147.521 Y135.347 E.01681
G1 X137.774 Y125.6 E.43309
G1 X137.24 Y125.6 E.01678
G1 X146.987 Y135.347 E.43309
G1 X146.453 Y135.347 E.01678
M73 P2 R88
G1 X136.706 Y125.6 E.43309
G1 X136.171 Y125.6 E.01681
G1 X145.918 Y135.347 E.43309
G1 X145.384 Y135.347 E.01678
G1 X135.637 Y125.6 E.43309
G1 X135.102 Y125.6 E.01681
G1 X144.85 Y135.347 E.43311
G1 X144.315 Y135.347 E.01681
G1 X134.568 Y125.6 E.43309
G1 X134.034 Y125.6 E.01678
G1 X143.781 Y135.347 E.43309
G1 X143.246 Y135.347 E.01681
G1 X133.499 Y125.6 E.43309
G1 X132.965 Y125.6 E.01678
G1 X142.712 Y135.347 E.43309
G1 X142.178 Y135.347 E.01678
G1 X132.431 Y125.6 E.43309
G1 X131.896 Y125.6 E.01681
G1 X141.643 Y135.347 E.43309
G1 X141.109 Y135.347 E.01678
G1 X131.362 Y125.6 E.43309
G1 X130.828 Y125.6 E.01678
G1 X140.575 Y135.347 E.43309
G1 X140.04 Y135.347 E.01681
G1 X130.293 Y125.6 E.43309
G1 X129.759 Y125.6 E.01678
G1 X139.506 Y135.347 E.43309
G1 X138.972 Y135.347 E.01678
G1 X129.224 Y125.6 E.43311
G1 X128.69 Y125.6 E.01678
G1 X138.437 Y135.347 E.43309
G1 X137.903 Y135.347 E.01678
G1 X128.156 Y125.6 E.43309
G1 X127.621 Y125.6 E.01681
G1 X137.368 Y135.347 E.43309
G1 X136.834 Y135.347 E.01678
G1 X127.087 Y125.6 E.43309
G1 X126.553 Y125.6 E.01678
G1 X136.3 Y135.347 E.43309
G1 X135.765 Y135.347 E.01681
G1 X126.018 Y125.6 E.43309
G1 X125.484 Y125.6 E.01678
G1 X135.231 Y135.347 E.43309
G1 X134.697 Y135.347 E.01678
G1 X124.949 Y125.6 E.43311
G1 X124.415 Y125.6 E.01678
G1 X134.162 Y135.347 E.43309
G1 X133.628 Y135.347 E.01678
G1 X123.881 Y125.6 E.43309
G1 X123.346 Y125.6 E.01681
G1 X133.094 Y135.347 E.43311
G1 X132.559 Y135.347 E.01681
G1 X122.812 Y125.6 E.43309
G1 X122.278 Y125.6 E.01678
G1 X132.025 Y135.347 E.43309
G1 X131.49 Y135.347 E.01681
G1 X121.743 Y125.6 E.43309
G1 X121.209 Y125.6 E.01678
G1 X130.956 Y135.347 E.43309
G1 X130.422 Y135.347 E.01678
G1 X120.675 Y125.6 E.43309
G1 X120.14 Y125.6 E.01681
G1 X129.887 Y135.347 E.43309
G1 X129.353 Y135.347 E.01678
G1 X119.606 Y125.6 E.43309
G1 X119.071 Y125.6 E.01681
G1 X128.819 Y135.347 E.43311
G1 X128.284 Y135.347 E.01681
G1 X118.537 Y125.6 E.43309
G1 X118.003 Y125.6 E.01678
G1 X127.75 Y135.347 E.43309
G1 X127.215 Y135.347 E.01681
G1 X117.468 Y125.6 E.43309
G1 X116.934 Y125.6 E.01678
G1 X126.681 Y135.347 E.43309
G1 X126.147 Y135.347 E.01678
G1 X116.4 Y125.6 E.43309
G1 X115.865 Y125.6 E.01681
G1 X125.612 Y135.347 E.43309
G1 X125.078 Y135.347 E.01678
G1 X115.331 Y125.6 E.43309
G1 X114.796 Y125.6 E.01681
G1 X124.544 Y135.347 E.43311
G1 X124.009 Y135.347 E.01681
G1 X114.262 Y125.6 E.43309
G1 X113.728 Y125.6 E.01678
G1 X123.475 Y135.347 E.43309
G1 X122.941 Y135.347 E.01678
G1 X113.193 Y125.6 E.43311
G1 X112.659 Y125.6 E.01678
G1 X122.406 Y135.347 E.43309
G1 X121.872 Y135.347 E.01678
G1 X112.125 Y125.6 E.43309
G1 X111.59 Y125.6 E.01681
G1 X121.337 Y135.347 E.43309
G1 X120.803 Y135.347 E.01678
G1 X111.056 Y125.6 E.43309
G1 X110.522 Y125.6 E.01678
G1 X120.269 Y135.347 E.43309
G1 X119.734 Y135.347 E.01681
G1 X109.987 Y125.6 E.43309
G1 X109.453 Y125.6 E.01678
G1 X119.2 Y135.347 E.43309
G1 X118.666 Y135.347 E.01678
G1 X108.918 Y125.6 E.43311
G1 X108.384 Y125.6 E.01678
G1 X118.131 Y135.347 E.43309
G1 X117.597 Y135.347 E.01678
G1 X107.85 Y125.6 E.43309
G1 X107.315 Y125.6 E.01681
G1 X117.062 Y135.347 E.43309
G1 X116.528 Y135.347 E.01678
M73 Q2 S89
G1 X106.781 Y125.6 E.43309
G1 X106.247 Y125.6 E.01678
G1 X115.994 Y135.347 E.43309
G1 X115.459 Y135.347 E.01681
M73 P3 R88
G1 X105.712 Y125.6 E.43309
G1 X105.178 Y125.6 E.01678
G1 X114.925 Y135.347 E.43309
G1 X114.391 Y135.347 E.01678
G1 X104.643 Y125.6 E.43311
G1 X104.109 Y125.6 E.01678
M73 Q3 S89
G1 X113.856 Y135.347 E.43309
G1 X113.322 Y135.347 E.01678
G1 X103.575 Y125.6 E.43309
G1 X103.04 Y125.6 E.01681
G1 X112.788 Y135.347 E.43311
G1 X112.253 Y135.347 E.01681
G1 X102.506 Y125.6 E.43309
G1 X101.972 Y125.6 E.01678
G1 X111.719 Y135.347 E.43309
G1 X111.184 Y135.347 E.01681
G1 X101.437 Y125.6 E.43309
G1 X100.903 Y125.6 E.01678
G1 X110.65 Y135.347 E.43309
G1 X110.116 Y135.347 E.01678
G1 X100.369 Y125.6 E.43309
G1 X99.834 Y125.6 E.01681
G1 X109.581 Y135.347 E.43309
G1 X109.047 Y135.347 E.01678
G1 X99.3 Y125.6 E.43309
G1 X98.765 Y125.6 E.01681
G1 X108.513 Y135.347 E.43311
G1 X107.978 Y135.347 E.01681
G1 X98.231 Y125.6 E.43309
G1 X97.697 Y125.6 E.01678
G1 X107.444 Y135.347 E.43309
G1 X106.909 Y135.347 E.01681
G1 X97.162 Y125.6 E.43309
G1 X96.628 Y125.6 E.01678
G1 X106.375 Y135.347 E.43309
G1 X105.841 Y135.347 E.01678
G1 X96.094 Y125.6 E.43309
G1 X95.559 Y125.6 E.01681
G1 X105.306 Y135.347 E.43309
G1 X104.772 Y135.347 E.01678
G1 X95.025 Y125.6 E.43309
G1 X94.491 Y125.6 E.01678
G1 X104.238 Y135.347 E.43309
G1 X103.703 Y135.347 E.01681
G1 X93.956 Y125.6 E.43309
G1 X93.422 Y125.6 E.01678
G1 X103.169 Y135.347 E.43309
G1 X102.635 Y135.347 E.01678
M73 P3 R87
G1 X92.887 Y125.6 E.43311
G1 X92.353 Y125.6 E.01678
G1 X102.1 Y135.347 E.43309
G1 X101.566 Y135.347 E.01678
G1 X91.819 Y125.6 E.43309
G1 X91.284 Y125.6 E.01681
G1 X101.031 Y135.347 E.43309
G1 X100.497 Y135.347 E.01678
G1 X90.75 Y125.6 E.43309
G1 X90.216 Y125.6 E.01678
G1 X99.963 Y135.347 E.43309
G1 X99.428 Y135.347 E.01681
G1 X89.681 Y125.6 E.43309
G1 X89.147 Y125.6 E.01678
G1 X98.894 Y135.347 E.43309
G1 X98.36 Y135.347 E.01678
G1 X88.612 Y125.6 E.43311
G1 X88.078 Y125.6 E.01678
G1 X97.825 Y135.347 E.43309
G1 X97.291 Y135.347 E.01678
G1 X87.544 Y125.6 E.43309
G1 X87.009 Y125.6 E.01681
G1 X96.757 Y135.347 E.43311
G1 X96.222 Y135.347 E.01681
G1 X86.475 Y125.6 E.43309
G1 X85.941 Y125.6 E.01678
G1 X95.688 Y135.347 E.43309
G1 X95.153 Y135.347 E.01681
G1 X85.406 Y125.6 E.43309
G1 X84.872 Y125.6 E.01678
G1 X94.619 Y135.347 E.43309
G1 X94.085 Y135.347 E.01678
G1 X84.338 Y125.6 E.43309
G1 X83.803 Y125.6 E.01681
G1 X93.55 Y135.347 E.43309
G1 X93.016 Y135.347 E.01678
G1 X83.269 Y125.6 E.43309
G1 X82.734 Y125.6 E.01681
G1 X92.482 Y135.347 E.43311
G1 X91.947 Y135.347 E.01681
G1 X82.2 Y125.6 E.43309
G1 X81.666 Y125.6 E.01678
G1 X91.413 Y135.347 E.43309
G1 X90.878 Y135.347 E.01681
G1 X81.131 Y125.6 E.43309
G1 X80.597 Y125.6 E.01678
G1 X90.344 Y135.347 E.43309
G1 X89.81 Y135.347 E.01678
G1 X80.063 Y125.6 E.43309
G1 X79.528 Y125.6 E.01681
G1 X89.275 Y135.347 E.43309
G1 X88.741 Y135.347 E.01678
G1 X78.994 Y125.6 E.43309
G1 X78.459 Y125.6 E.01681
G1 X88.207 Y135.347 E.43311
G1 X87.672 Y135.347 E.01681
G1 X77.925 Y125.6 E.43309
G1 X77.391 Y125.6 E.01678
G1 X87.138 Y135.347 E.43309
G1 X86.604 Y135.347 E.01678
G1 X76.856 Y125.6 E.43311
G1 X76.322 Y125.6 E.01678
G1 X86.069 Y135.347 E.43309
G1 X85.535 Y135.347 E.01678
G1 X75.788 Y125.6 E.43309
G1 X75.253 Y125.6 E.01681
G1 X85 Y135.347 E.43309
G1 X84.466 Y135.347 E.01678
G1 X74.957 Y125.838 E.42251
G1 X74.957 Y126.373 E.01681
